X: 1
T: Speed the Plow
O: trad. New England
R: reel
Z: 2014 John Chambers <jc:trillian.mit.edu>
S: printed copy from Debby Knight at RJ practice
M: C|
L: 1/8
K: A
|: "A"e4      c4   | "E7"BABd "A"cBA2 | "D"fefg "(Bm)"afed | "E7"cB3 [1,3 B2cd :|2,4 "A"A4 :|
|: "A"e2e2 "D"fedf | "A"ece2  "D"f3e  | "D"fefg "(Bm)"afed | "E7"cB3 [1,3 B2cd :|2,4 "A"A4 :|

%%newpage

%%sep 1 1 500

